X:1
T:Banish Misfortune
M:6/8
L:1/8
K:D
"D"fed "A"=cAG|"D"A2d "C"=cAG|"D"F2D DED|F3 "C"GFG|!
"D"A3 "C"=cAG|"D"AGA "C"=cde|"D"fed "C"=cAG|"D"Ad^c d2:||!
e|"D"f2d d=cd|f2g agf|"C"e2=c cBc|e2f gfe|!
"D"f2g agf|"C"e2f gfe|"D"fed "C"=cAG|"D"Ad^c d2:||!
e|"D"f2g "(C)"e 19c 2f|"(D)"d2e "(C)"=c2d|"D"ABA "C"GAG|"D"F3 AFD|!
"C"=c3 cAG|"D"AGA "C"=cde|"D"fed "C"=cAG|"D"Ad^c d2:|]!
